X: 241
%
U:~=!turn!
T: The Honourable Mrs. Drummond of Perth
C:John Bowie
O:Scotland
B:Keith Norman MacDonald : "The Skye collection of the best reels & strathspeys extant" : 1887
Z:Ralph Palmer
R:Strathspey
M:C
L:1/8
K:D
F | D>GF>A (D<d)dB | A<DF>D TE<B,B,>E | D<AF>A D<gf>e | {/c}d>BA>F D/2D/2D D :: f | {/c}d/2e/2f/2g/2 a<d f>da>d |
(A/2B/2c/2d/2) e>A {/d}c>Ae>A | [2 (d/2e/2f/2g/2) a>d f>d a>d | A<gTf>e f<dd :| [2 {/c}d>fe>g f>de<f | {/c}d>BA>F D/2D/2D D |]


